assets/images/ico_step3_1.svg

<svg width="69" height="63" viewBox="0 0 69 63" fill="none" xmlns="http://www.w3.org/2000/svg">
<path d="M61.5338 7.2085H7.17692C5.5387 7.2085 3.96758 7.86261 2.80918 9.02695C1.65078 10.1913 1 11.7705 1 13.4171V55.6356C1 57.2822 1.65078 58.8614 2.80918 60.0257C3.96758 61.19 5.5387 61.8442 7.17692 61.8442H61.5338C63.172 61.8442 64.7432 61.19 65.9016 60.0257C67.06 58.8614 67.7107 57.2822 67.7107 55.6356V13.4171C67.7107 11.7705 67.06 10.1913 65.9016 9.02695C64.7432 7.86261 63.172 7.2085 61.5338 7.2085ZM61.5338 59.3607H7.17692C6.19399 59.3607 5.25131 58.9682 4.55628 58.2696C3.86124 57.571 3.47077 56.6235 3.47077 55.6356V13.4171C3.47077 12.4291 3.86124 11.4816 4.55628 10.783C5.25131 10.0844 6.19399 9.69194 7.17692 9.69194H61.5338C62.5168 9.69194 63.4594 10.0844 64.1545 10.783C64.8495 11.4816 65.24 12.4291 65.24 13.4171V24.5926H40.5323C37.9111 24.5926 35.3973 25.6392 33.5439 27.5021C31.6905 29.365 30.6492 31.8917 30.6492 34.5263C30.6492 37.1609 31.6905 39.6876 33.5439 41.5505C35.3973 43.4135 37.9111 44.4601 40.5323 44.4601H65.24V55.6356C65.24 56.6235 64.8495 57.571 64.1545 58.2696C63.4594 58.9682 62.5168 59.3607 61.5338 59.3607ZM65.24 41.9766H40.5323C38.5664 41.9766 36.6811 41.1917 35.291 39.7945C33.9009 38.3973 33.12 36.5023 33.12 34.5263C33.12 32.5504 33.9009 30.6554 35.291 29.2582C36.6811 27.8609 38.5664 27.076 40.5323 27.076H65.24V41.9766Z" fill="#2EBBE1" stroke="#2EBBE1" stroke-width="0.8"/>
<path d="M8.41239 3.48344H60.2985C60.6262 3.48344 60.9404 3.35262 61.1721 3.11975C61.4037 2.88688 61.5339 2.57104 61.5339 2.24172C61.5339 1.9124 61.4037 1.59656 61.1721 1.36369C60.9404 1.13082 60.6262 1 60.2985 1H8.41239C8.08474 1 7.77052 1.13082 7.53884 1.36369C7.30716 1.59656 7.177 1.9124 7.177 2.24172C7.177 2.57104 7.30716 2.88688 7.53884 3.11975C7.77052 3.35262 8.08474 3.48344 8.41239 3.48344Z" fill="#2EBBE1" stroke="#2EBBE1" stroke-width="0.8"/>
<circle cx="40.9062" cy="34" r="2" fill="#2EBBE1" stroke="#2EBBE1" stroke-width="0.8"/>
</svg>

<svg width="69" height="63" fill="none" xmlns="http://www.w3.org/2000/svg"><path d="M61.534 7.208H7.177c-1.638 0-3.21.655-4.368 1.819A6.225 6.225 0 001 13.417v42.219a6.22 6.22 0 001.81 4.39 6.161 6.161 0 004.367 1.818h54.357c1.638 0 3.21-.654 4.368-1.818a6.225 6.225 0 001.809-4.39V13.417a6.223 6.223 0 00-1.81-4.39 6.161 6.161 0 00-4.367-1.818zm0 52.153H7.177a3.697 3.697 0 01-2.62-1.091 3.735 3.735 0 01-1.086-2.634V13.417c0-.988.39-1.935 1.085-2.634a3.697 3.697 0 012.62-1.091h54.358c.983 0 1.925.392 2.62 1.091a3.735 3.735 0 011.086 2.634v11.176H40.532a9.858 9.858 0 00-6.988 2.91 9.96 9.96 0 00-2.895 7.023 9.96 9.96 0 002.895 7.024 9.857 9.857 0 006.988 2.91H65.24v11.176c0 .987-.39 1.935-1.085 2.634a3.697 3.697 0 01-2.621 1.09zm3.706-17.384H40.532a7.393 7.393 0 01-5.241-2.182 7.47 7.47 0 01-2.171-5.269c0-1.976.78-3.87 2.171-5.268a7.393 7.393 0 015.241-2.182H65.24v14.9zM8.412 3.483h51.886c.328 0 .642-.13.874-.363a1.245 1.245 0 000-1.756A1.232 1.232 0 0060.3 1H8.411c-.327 0-.641.13-.873.364a1.245 1.245 0 000 1.756c.232.233.546.363.873.363z" fill="#2EBBE1" stroke="#2EBBE1" stroke-width=".8"/><circle cx="40.906" cy="34" r="2" fill="#2EBBE1" stroke="#2EBBE1" stroke-width=".8"/></svg>
